X: 6692
T: Centennial Highway, The
R: reel
M: 4/4
K: Adorian
AG|:EAAB AGAB|cBcd e2 dc|BGGF G2 BA|GABc dBdB|
ABAG A2 AB|cBcd edef|gage dBGA|1 BcBG A2 AG:|2 BdBG A2 Ac||
|:eaag a2 ag|edef gage|dBGA G2 BA|GABc d2 cd|
eaag a2 ag|edef gefg|agfd efed|1 cABG A2 Ac:|2 cABG A2 AG||

